static/images/mobile/copyright/wikipedia-wordmark-lrc.svg

<?xml version="1.0" encoding="UTF-8"?>
<svg width="86px" height="32px" viewBox="0 0 86 32" version="1.1" xmlns="http://www.w3.org/2000/svg" xmlns:xlink="http://www.w3.org/1999/xlink">
    <title>wikipedia-wordmark-lrc</title>
    <g id="Page-1" stroke="none" stroke-width="1" fill="none" fill-rule="evenodd">
        <path d="M6.49817385,25.431702 C7.26953981,26.0394449 7.90065741,26.6471877 8.62527392,27.4419284 C8.13440467,28.1899196 7.76040906,28.6807889 7.22279036,29.1482834 C6.4514244,28.4236669 5.77355734,27.815924 5.02556611,27.2081812 C5.51643535,26.5303141 6.03067933,25.9225712 6.49817385,25.431702 Z M10.1212564,25.1979547 C10.8926224,25.8056976 11.52374,26.4134405 12.2483565,27.2081812 C11.7341125,27.9327977 11.3601169,28.4236669 10.8458729,28.9145362 C10.0745069,28.1899196 9.39663988,27.5821768 8.64864865,26.9744339 C9.1395179,26.2965668 9.65376187,25.688824 10.1212564,25.1979547 Z M1.75310446,2.40759679 L1.89335281,2.47772096 C2.17551915,6.27611395 2.19567389,10.7396133 2.19711351,15.044754 L2.19722425,17.1102995 C2.19722425,18.3024105 2.87509131,18.8400292 3.59970782,19.1205259 C4.01053633,19.2643159 4.43941641,19.3178481 4.69598618,19.328713 C4.81337957,19.2995271 4.94684588,19.284149 5.09569028,19.284149 L5.39956172,19.284149 C6.9890431,19.284149 8.27465303,19.2373996 9.09276844,18.9335281 C9.74726077,18.6997809 10.1680058,18.4192841 10.1680058,18.1154127 C10.1680058,17.2271731 9.27976625,15.4039445 8.29802776,13.4872169 C8.74214755,12.6924763 9.20964207,11.9678598 9.70051132,11.3834916 L9.79401023,11.3834916 C10.6588751,12.9028488 11.6639883,15.2403214 11.6639883,17.0869248 C11.6639883,18.4894083 11.1029949,19.5880205 10.3550037,20.5697589 C9.51351351,21.4112491 8.18115413,21.6917458 5.32943755,21.6917458 L5.09569028,21.6917458 L5.048,21.689 L4.86194302,21.6917458 C3.38933528,21.6917458 2.43097151,21.3878744 1.65960555,20.6165084 C0.514243974,19.4477721 0.490869248,18.1154127 0.490869248,15.3805698 C0.490869248,11.8276114 0.280496713,8.08765522 7.10542736e-15,4.13732652 C0.631117604,3.43608473 1.21548576,2.82834186 1.75310446,2.40759679 Z M40.2980278,28.2834186 C41.0693937,28.8911614 41.7005113,29.4989043 42.4251278,30.293645 C41.9342586,31.0182615 41.560263,31.5091308 41.0226443,32 C40.2512783,31.2753835 39.5734112,30.6676406 38.82542,30.0598977 C39.3162893,29.3820307 39.8305332,28.7742878 40.2980278,28.2834186 Z M46.422206,25.431702 C47.193572,26.0394449 47.8246896,26.6471877 48.5493061,27.4419284 C48.0584368,28.1899196 47.6844412,28.6807889 47.1468225,29.1482834 C46.3754565,28.4236669 45.6975895,27.815924 44.9495982,27.2081812 C45.4404675,26.5303141 45.9547115,25.9225712 46.422206,25.431702 Z M69.2826881,25.431702 C70.0540541,26.0394449 70.6851717,26.6471877 71.4097882,27.4419284 C70.8955442,28.1899196 70.5215486,28.6807889 70.0073046,29.1482834 C69.2359386,28.4236669 68.5580716,27.815924 67.8100804,27.2081812 C68.3009496,26.5303141 68.8151936,25.9225712 69.2826881,25.431702 Z M50.0452885,25.1979547 C50.8166545,25.8056976 51.4477721,26.4134405 52.1723886,27.2081812 C51.6581446,27.9327977 51.284149,28.4236669 50.769905,28.9145362 C49.9985391,28.1899196 49.320672,27.5821768 48.5726808,26.9744339 C49.06355,26.2965668 49.577794,25.688824 50.0452885,25.1979547 Z M72.8823959,25.1979547 C73.6537619,25.8056976 74.2848795,26.4134405 75.009496,27.2081812 C74.5186267,27.9327977 74.1446311,28.4236669 73.6070124,28.9145362 C72.8356465,28.1899196 72.1577794,27.5821768 71.4097882,26.9744339 C71.9006574,26.2965668 72.4149014,25.688824 72.8823959,25.1979547 Z M37.6800584,24.5668371 C38.4514244,25.17458 39.082542,25.7823229 39.8071585,26.5770636 C39.3162893,27.3016801 38.9422936,27.7925493 38.4046749,28.2834186 C37.633309,27.558802 36.9554419,26.9510592 36.2074507,26.3433163 C36.6983199,25.6654492 37.2125639,25.0577064 37.6800584,24.5668371 Z M41.303141,24.3097151 C42.0745069,24.917458 42.7056245,25.5252009 43.4302411,26.3199416 C42.9159971,27.0679328 42.5420015,27.5354273 42.0277575,28.0262966 C41.2563915,27.3016801 40.5785245,26.6939372 39.8305332,26.0861943 C40.3214025,25.4083272 40.8356465,24.8005844 41.303141,24.3097151 Z M65.6596056,1.37910884 L65.7297297,1.49598247 C65.3323594,2.29072316 64.8414901,3.03871439 64.2804967,3.78670562 C63.1585099,4.06720234 61.5456538,4.60482104 60.0029218,5.16581446 C57.7589481,6.0073046 55.6318481,6.84879474 54.3228634,7.55003652 L54.3228634,7.59678598 C55.3279766,8.25127831 56.4265888,8.71877283 57.1979547,9.04601899 L56.6369613,9.98100804 C58.6471877,11.8042367 61.0080351,14.422206 63.5325055,17.3907962 C64.5843682,18.6296567 65.6362308,19.3075237 67.155588,19.3075237 L67.8802045,19.3075237 L67.8802045,19.284149 C69.3294375,19.284149 70.82542,18.6997809 71.1059167,17.6479182 L71.6435354,15.6376917 L72.9291454,14.7027027 L73.046019,14.8429511 C72.788897,15.8013148 72.6252739,16.5960555 72.6252739,17.0168006 C72.6252739,17.6712929 72.788897,18.2089116 73.2330168,18.5595325 C73.8407597,19.0504018 74.5653762,19.3075237 75.5471147,19.3075237 L75.6247576,19.3066276 C75.7159841,19.2920219 75.8146107,19.284149 75.9211103,19.284149 L77.4872169,19.284149 C79.100073,19.284149 80.5025566,19.2373996 81.577794,18.9101534 C82.769905,18.5595325 83.7750183,17.834916 83.7750183,17.3674215 C83.7750183,17.2271731 83.7750183,17.0869248 83.7282688,16.9466764 C83.0504018,17.0168006 82.2790358,17.0168006 81.6245435,17.0168006 C79.4506939,17.0168006 77.7910884,16.4324324 77.1365961,15.0065741 C76.972973,14.6092038 76.8560993,14.165084 76.8560993,13.65084 C76.8560993,12.2717312 77.3703433,10.8926224 78.2585829,9.95763331 C79.0065741,9.18626735 79.8246896,8.6953981 80.6661797,8.6953981 C82.1855369,8.6953981 83.4010226,10.1446311 84.2425128,12.4119795 C84.7100073,13.65084 85.0372535,15.0766983 85.0372535,16.8765522 C85.0372535,18.0686633 84.7567568,19.0737765 84.1256392,19.8451424 C82.9569028,21.2008766 80.7830533,21.6917458 77.4404675,21.6917458 L75.9211103,21.6917458 L75.874,21.689 L75.8743608,21.7151205 L75.4536158,21.7151205 C73.6303871,21.7151205 72.2279036,21.2008766 71.596786,19.798393 L71.5266618,19.798393 C70.8955442,21.0606282 69.4229364,21.7151205 67.8100804,21.7151205 L67.4594595,21.7151205 C67.3538862,21.7151205 67.2561944,21.7072391 67.1658784,21.692538 L67.1088386,21.6917458 C64.8181154,21.6917458 63.5792549,20.4295106 62.2702703,18.6530314 C61.6625274,17.8582907 61.0781592,17.0869248 60.6340394,16.5726808 L60.5639153,16.5726808 C60.5405405,19.4945215 58.9043097,21.6917458 53.5982469,21.6917458 L53.0840029,21.6917458 L53.037,21.689 L53.0372535,21.7151205 L52.6165084,21.7151205 C50.7932798,21.7151205 49.3907962,21.2008766 48.7596786,19.798393 L48.6895544,19.798393 C48.0584368,21.0606282 46.5858291,21.7151205 44.972973,21.7151205 L44.6223521,21.7151205 L44.598,21.714 L44.1782323,21.7151205 C42.3550037,21.7151205 40.9525201,21.2008766 40.3214025,19.798393 L40.2512783,19.798393 C39.6201607,21.0606282 38.147553,21.7151205 36.5346969,21.7151205 L36.184076,21.7151205 L36.137,21.713 L35.7165814,21.7151205 C33.8933528,21.7151205 32.4908692,21.2008766 31.8597516,19.798393 L31.7896275,19.798393 C31.1585099,21.0606282 29.6859021,21.7151205 28.073046,21.7151205 L27.7224251,21.7151205 C27.6168519,21.7151205 27.51916,21.7072391 27.428844,21.692538 L27.395179,21.6917458 C25.7121987,21.6917458 24.3097151,20.990504 23.5850986,18.6296567 L23.4915997,18.6296567 C23.3513514,19.3308985 22.953981,19.9386413 22.1358656,20.4295106 C20.8970051,21.1775018 19.6347699,21.6917458 18.3725347,21.6917458 C16.2688093,21.6917458 15.1234478,20.4295106 15.1234478,18.2322863 C15.1234478,17.7647918 15.1468225,17.320672 15.1701972,16.8531775 L15.8948137,16.806428 C15.9649379,18.34916 16.7363039,19.3075237 18.5361578,19.3075237 C19.5178963,19.3075237 20.7100073,18.8867787 21.5982469,18.3725347 C22.2994887,17.9751644 22.8137327,17.4141709 22.8137327,16.9700511 C22.8137327,15.7078159 22.1358656,13.2067202 21.2710007,10.0043828 C21.6917458,9.34989043 22.1124909,8.67202337 22.6033601,8.08765522 L22.7202337,8.1577794 C23.4214755,10.8458729 23.982469,13.7443389 24.4967129,16.4791819 C24.8239591,18.3257852 26.0394449,19.3075237 27.4653031,19.3075237 L28.1431702,19.3075237 L28.1431702,19.284149 C29.5924032,19.284149 31.0883857,18.6997809 31.3688824,17.6479182 L31.9065011,15.6376917 L33.192111,14.7027027 L33.3089847,14.8429511 C33.0518627,15.8013148 32.8882396,16.5960555 32.8882396,17.0168006 C32.8882396,17.6712929 33.0518627,18.2089116 33.4959825,18.5595325 C34.1037253,19.0504018 34.8283419,19.3075237 35.8100804,19.3075237 L36.604821,19.3075237 L36.604821,19.284149 C38.0540541,19.284149 39.5500365,18.6997809 39.8305332,17.6479182 L40.3681519,15.6376917 L41.6537619,14.7027027 L41.7706355,14.8429511 C41.5135135,15.8013148 41.3498904,16.5960555 41.3498904,17.0168006 C41.3498904,17.6712929 41.5135135,18.2089116 41.9576333,18.5595325 C42.5653762,19.0504018 43.2899927,19.3075237 44.2717312,19.3075237 L45.0430972,19.3075237 L45.0430972,19.284149 C46.4923302,19.284149 47.9883126,18.6997809 48.2688093,17.6479182 L48.806428,15.6376917 L50.092038,14.7027027 L50.2089116,14.8429511 C49.9517896,15.8013148 49.7881665,16.5960555 49.7881665,17.0168006 C49.7881665,17.6712929 49.9517896,18.2089116 50.3959094,18.5595325 C51.0036523,19.0504018 51.7282688,19.3075237 52.7100073,19.3075237 L52.7876502,19.3066276 C52.8788767,19.2920219 52.9775034,19.284149 53.0840029,19.284149 L53.8319942,19.284149 C55.3513514,19.284149 57.1512053,19.027027 58.366691,18.2089116 C58.7406866,17.9751644 59.2783053,17.5544193 59.2783053,17.2972973 C59.2783053,16.899927 59.1146822,16.4791819 58.9043097,16.0350621 C58.109569,14.3520818 56.2863404,12.3418554 54.276114,10.3550037 C53.76187,9.84075968 53.3644996,9.39663988 53.1073776,9.09276844 C53.0606282,8.76552228 52.9671293,8.41490139 52.9671293,8.0642805 C52.9671293,7.55003652 53.1541271,7.01241782 53.4813733,6.4514244 C53.6216216,6.19430241 53.9021183,5.93718042 54.1592403,5.75018262 C56.0993426,4.48794741 60.5171658,2.96859021 65.6596056,1.37910884 Z M80.2688093,11.1731191 C79.0299489,11.1731191 78.0248356,12.1314828 78.0248356,12.8327246 C78.0248356,14.3520818 80.5025566,14.8195763 83.4477721,14.7962016 C83.0737765,13.0197224 81.7881665,11.1731191 80.2688093,11.1731191 Z M32.2804967,6.80204529 C33.0284879,6.80204529 33.449233,7.22279036 33.449233,7.71365961 C33.449233,8.20452885 33.1453616,8.57852447 32.8414901,8.92914536 L32.7947407,8.92914536 C32.5843682,8.50840029 32.3973703,8.25127831 32.1869978,8.20452885 C32.0467495,8.1577794 31.8363769,8.1577794 31.6026297,8.1577794 C30.9481373,8.1577794 30.293645,8.53177502 30.293645,8.81227173 C30.293645,9.70051132 31.8597516,10.0043828 32.9817385,10.0043828 C33.6128561,10.0043828 34.2439737,9.95763331 34.898466,9.93425858 L34.898466,9.98100804 C34.6647188,10.4485026 34.4309715,10.8692476 34.1738495,11.2432432 C32.3038714,11.5471147 30.6676406,12.0379839 29.3119065,12.6457268 L29.265157,12.5989774 L29.7092768,11.8042367 C29.8728999,11.5938641 30.2468955,11.2899927 30.5741417,11.1964938 L30.5741417,11.1497443 C29.6859021,10.8926224 29.1249087,10.3316289 29.1249087,9.51351351 C29.1249087,8.99926954 29.4755296,8.34477721 30.0131483,7.87728269 C30.6208912,7.26953981 31.5091308,6.80204529 32.2804967,6.80204529 Z M77.7677137,3.99707816 C78.5390796,4.60482104 79.1701972,5.21256392 79.8948137,6.0073046 C79.3805698,6.73192111 79.0065741,7.22279036 78.4923302,7.71365961 C77.7209642,6.9890431 77.0430972,6.38130022 76.2951059,5.77355734 C76.7859752,5.09569028 77.3002191,4.48794741 77.7677137,3.99707816 Z M81.3674215,3.73995617 C82.1387874,4.34769905 82.769905,4.95544193 83.4945215,5.75018262 C83.0036523,6.49817385 82.6296567,6.96566837 82.092038,7.45653762 C81.320672,6.73192111 80.642805,6.12417823 79.8948137,5.51643535 C80.385683,4.8385683 80.899927,4.23082542 81.3674215,3.73995617 Z M78.7728269,0 C79.5441928,0.607742878 80.1753104,1.21548576 80.899927,2.01022644 C80.385683,2.73484295 80.0116874,3.2257122 79.4974434,3.71658145 C78.7260774,2.99196494 78.0482104,2.38422206 77.3002191,1.77647918 C77.7910884,1.09861213 78.3053324,0.490869248 78.7728269,0 Z" id="wikipedia-wordmark-lrc" fill="#000000" fill-rule="nonzero"></path>
    </g>
</svg>

<svg xmlns="http://www.w3.org/2000/svg" width="86" height="32"><path fill="#000" fill-rule="nonzero" d="M6.498 25.432c.772.607 1.403 1.215 2.127 2.01-.49.748-.865 1.239-1.402 1.706a39.691 39.691 0 0 0-2.197-1.94 17.485 17.485 0 0 1 1.472-1.776Zm3.623-.234c.772.608 1.403 1.215 2.127 2.01-.514.725-.888 1.216-1.402 1.707a39.691 39.691 0 0 0-2.197-1.94 17.485 17.485 0 0 1 1.472-1.777ZM1.753 2.408l.14.07c.283 3.798.303 8.262.304 12.567v2.065c0 1.192.678 1.73 1.403 2.01.41.144.84.198 1.096.209.117-.03.25-.045.4-.045H5.4c1.589 0 2.875-.047 3.693-.35.654-.234 1.075-.515 1.075-.819 0-.888-.888-2.711-1.87-4.628.444-.795.912-1.52 1.403-2.104h.093c.865 1.52 1.87 3.857 1.87 5.704 0 1.402-.561 2.501-1.309 3.483-.841.841-2.174 1.122-5.026 1.122h-.233l-.048-.003-.186.003c-1.473 0-2.431-.304-3.202-1.075C.514 19.447.49 18.115.49 15.38.49 11.828.28 8.088 0 4.137c.631-.7 1.215-1.309 1.753-1.73Zm38.545 25.875c.771.608 1.403 1.216 2.127 2.01-.49.725-.865 1.216-1.402 1.707a39.691 39.691 0 0 0-2.198-1.94 17.485 17.485 0 0 1 1.473-1.777Zm6.124-2.851c.772.607 1.403 1.215 2.127 2.01-.49.748-.865 1.239-1.402 1.706a39.691 39.691 0 0 0-2.197-1.94 17.485 17.485 0 0 1 1.472-1.776Zm22.86 0c.772.607 1.403 1.215 2.128 2.01-.514.748-.888 1.239-1.403 1.706a39.691 39.691 0 0 0-2.197-1.94 17.485 17.485 0 0 1 1.473-1.776Zm-19.237-.234c.772.608 1.403 1.215 2.127 2.01-.514.725-.888 1.216-1.402 1.707a39.691 39.691 0 0 0-2.197-1.94 17.485 17.485 0 0 1 1.472-1.777Zm22.837 0c.772.608 1.403 1.215 2.127 2.01-.49.725-.864 1.216-1.402 1.707a39.691 39.691 0 0 0-2.197-1.94 17.485 17.485 0 0 1 1.472-1.777Zm-35.202-.631c.771.608 1.403 1.215 2.127 2.01-.49.725-.865 1.216-1.402 1.706a39.691 39.691 0 0 0-2.198-1.94 17.485 17.485 0 0 1 1.473-1.776Zm3.623-.257c.772.607 1.403 1.215 2.127 2.01-.514.748-.888 1.215-1.402 1.706a39.691 39.691 0 0 0-2.197-1.94 17.485 17.485 0 0 1 1.472-1.776ZM65.66 1.38l.07.116c-.398.795-.889 1.543-1.45 2.29-1.121.281-2.734.819-4.277 1.38-2.244.841-4.371 1.683-5.68 2.384v.047c1.005.654 2.104 1.122 2.875 1.449l-.561.935c2.01 1.823 4.371 4.441 6.896 7.41 1.051 1.239 2.103 1.917 3.623 1.917h.724v-.024c1.45 0 2.945-.584 3.226-1.636l.538-2.01 1.285-.935.117.14c-.257.958-.42 1.753-.42 2.174 0 .654.163 1.192.607 1.543.608.49 1.332.748 2.314.748l.078-.001c.091-.015.19-.023.296-.023h1.566c1.613 0 3.016-.047 4.09-.374 1.193-.35 2.198-1.075 2.198-1.543 0-.14 0-.28-.047-.42-.678.07-1.449.07-2.103.07-2.174 0-3.834-.585-4.488-2.01a3.502 3.502 0 0 1-.28-1.356c0-1.38.513-2.758 1.402-3.693.748-.772 1.566-1.263 2.407-1.263 1.52 0 2.735 1.45 3.577 3.717.467 1.239.794 2.665.794 4.465 0 1.192-.28 2.197-.911 2.968-1.17 1.356-3.343 1.847-6.686 1.847h-1.519l-.047-.003v.026h-.42c-1.824 0-3.226-.514-3.857-1.917h-.07c-.631 1.263-2.104 1.917-3.717 1.917h-.35c-.106 0-.204-.008-.294-.022l-.057-.001c-2.29 0-3.53-1.262-4.839-3.039-.607-.795-1.192-1.566-1.636-2.08h-.07c-.023 2.922-1.66 5.119-6.966 5.119h-.514l-.047-.003v.026h-.42c-1.824 0-3.226-.514-3.857-1.917h-.07c-.632 1.263-2.104 1.917-3.717 1.917h-.35l-.025-.001-.42.001c-1.823 0-3.225-.514-3.857-1.917h-.07c-.63 1.263-2.103 1.917-3.716 1.917h-.35l-.048-.002-.42.002c-1.824 0-3.226-.514-3.857-1.917h-.07c-.631 1.263-2.104 1.917-3.717 1.917h-.35c-.106 0-.204-.008-.294-.022l-.034-.001c-1.683 0-3.085-.701-3.81-3.062h-.093c-.14.7-.538 1.309-1.356 1.8-1.239.748-2.501 1.262-3.763 1.262-2.104 0-3.25-1.262-3.25-3.46 0-.467.024-.911.047-1.379l.725-.047c.07 1.543.841 2.502 2.641 2.502.982 0 2.174-.421 3.062-.935.701-.398 1.216-.959 1.216-1.403 0-1.262-.678-3.763-1.543-6.966.42-.654.841-1.332 1.332-1.916l.117.07c.701 2.688 1.262 5.586 1.777 8.321.327 1.847 1.542 2.829 2.968 2.829h.678v-.024c1.45 0 2.945-.584 3.226-1.636l.538-2.01 1.285-.935.117.14c-.257.958-.42 1.753-.42 2.174 0 .654.163 1.192.607 1.543.608.49 1.332.748 2.314.748h.795v-.024c1.45 0 2.945-.584 3.226-1.636l.537-2.01 1.286-.935.117.14c-.257.958-.421 1.753-.421 2.174 0 .654.164 1.192.608 1.543.607.49 1.332.748 2.314.748h.771v-.024c1.45 0 2.945-.584 3.226-1.636l.537-2.01 1.286-.935.117.14c-.257.958-.42 1.753-.42 2.174 0 .654.163 1.192.607 1.543.608.49 1.332.748 2.314.748l.078-.001c.09-.015.19-.023.296-.023h.748c1.52 0 3.32-.257 4.535-1.075.374-.234.911-.655.911-.912 0-.397-.163-.818-.374-1.262-.794-1.683-2.618-3.693-4.628-5.68a21.132 21.132 0 0 1-1.169-1.262c-.046-.327-.14-.678-.14-1.029 0-.514.187-1.052.514-1.613.14-.257.421-.514.678-.7 1.94-1.263 6.358-2.782 11.5-4.372Zm14.609 9.793c-1.24 0-2.244.958-2.244 1.66 0 1.52 2.478 1.987 5.423 1.963-.374-1.776-1.66-3.623-3.18-3.623ZM32.28 6.802c.748 0 1.17.42 1.17.912 0 .49-.305.865-.609 1.215h-.046c-.21-.42-.398-.678-.608-.724-.14-.047-.35-.047-.584-.047-.655 0-1.31.374-1.31.654 0 .889 1.567 1.192 2.689 1.192.63 0 1.262-.046 1.916-.07v.047c-.233.468-.467.888-.724 1.262-1.87.304-3.506.795-4.862 1.403l-.047-.047.444-.795c.164-.21.538-.514.865-.608v-.046c-.888-.257-1.45-.818-1.45-1.636 0-.515.352-1.17.89-1.637.607-.607 1.495-1.075 2.266-1.075Zm45.488-2.805c.771.608 1.402 1.216 2.127 2.01-.514.725-.888 1.216-1.403 1.707a39.691 39.691 0 0 0-2.197-1.94 17.485 17.485 0 0 1 1.473-1.777Zm3.6-.257c.77.608 1.402 1.215 2.127 2.01-.491.748-.865 1.216-1.403 1.707a39.691 39.691 0 0 0-2.197-1.94 17.485 17.485 0 0 1 1.472-1.777ZM78.772 0c.771.608 1.402 1.215 2.127 2.01-.514.725-.888 1.216-1.403 1.707a39.691 39.691 0 0 0-2.197-1.94A17.485 17.485 0 0 1 78.773 0Z"/></svg>
